symbolic/32x32/apps/freegish.svg

<svg xmlns="http://www.w3.org/2000/svg" height="32" width="32" version="1.1" xmlns:xlink="http://www.w3.org/1999/xlink">
 <g transform="translate(0,-1)">
  <path style="opacity:.2" d="m16 27c-14 0-14-7-14-7s0-14 14-14 14 14 14 14 0 7-14 7z"/>
  <path style="fill:#4f4f4f" d="m16 26c-14 0-14-7-14-7s0-14 14-14 14 14 14 14 0 7-14 7z"/>
  <path style="opacity:.2" d="m8 14c-4 0-4.0009032 6-0.4101562 6h7.4101562s-4-6-7-6zm16 0c-3 0-7 6-7 6h7.410156c3.590747 0 3.589844-6-0.410156-6z"/>
  <path style="fill:#ff3737" d="m7.5907473 19h7.4092527s-4-6-7-6c-4 0-4 6-0.4092527 6z"/>
  <path style="fill:#ff3737" d="m24.409253 19h-7.409253s4-6 7-6c4 0 4 6 0.409253 6z"/>
  <path style="opacity:.1;fill:#ffffff" d="m16 5c-14 0-14 14-14 14s0.00424 0.127478 0.035156 0.333984c0.2060778-2.75631 1.7859691-13.333984 13.964844-13.333984s13.758766 10.577674 13.964844 13.333984c0.030919-0.206506 0.035156-0.333984 0.035156-0.333984s0-14-14-14z"/>
  <path style="opacity:.2;fill:#ffffff" d="m8 13c-2.286925 0-3.2611173 1.958779-3.0097656 3.638672 0.1885902-1.369677 1.1715079-2.638672 3.0097656-2.638672 2.225625 0 4.994475 3.295202 6.279297 5h0.720703s-4-6-7-6zm16 0c-3 0-7 6-7 6h0.720703c1.284822-1.704798 4.053672-5 6.279297-5 1.838258 0 2.821175 1.268995 3.009766 2.638672 0.251351-1.679893-0.722841-3.638672-3.009766-3.638672z"/>
 </g>
</svg>

<svg xmlns="http://www.w3.org/2000/svg" height="32" width="32"><path style="opacity:.2" d="M16 27C2 27 2 20 2 20S2 6 16 6s14 14 14 14 0 7-14 7z" transform="translate(0 -1)"/><path style="fill:#4f4f4f" d="M16 26C2 26 2 19 2 19S2 5 16 5s14 14 14 14 0 7-14 7z" transform="translate(0 -1)"/><path style="opacity:.2" d="M8 14c-4 0-4 6-.41 6H15s-4-6-7-6zm16 0c-3 0-7 6-7 6h7.41C28 20 28 14 24 14z" transform="translate(0 -1)"/><path style="fill:#ff3737" d="M7.59 19H15s-4-6-7-6c-4 0-4 6-.41 6zM24.41 19H17s4-6 7-6c4 0 4 6 .41 6z" transform="translate(0 -1)"/><path style="opacity:.1;fill:#fff" d="M16 5C2 5 2 19 2 19s.004.127.035.334C2.241 16.578 3.821 6 16 6s13.759 10.578 13.965 13.334C29.995 19.127 30 19 30 19S30 5 16 5z" transform="translate(0 -1)"/><path style="opacity:.2;fill:#fff" d="M8 13c-2.287 0-3.261 1.959-3.01 3.639C5.18 15.269 6.162 14 8 14c2.226 0 4.994 3.295 6.28 5H15s-4-6-7-6zm16 0c-3 0-7 6-7 6h.72c1.286-1.705 4.054-5 6.28-5 1.838 0 2.821 1.269 3.01 2.639C27.26 14.959 26.287 13 24 13z" transform="translate(0 -1)"/></svg>
